X: 39916
T: Thomas MacDonnell's
R: strathspey
M: 4/4
K: Dmajor
|:f>e|d<BA>F A2A>f|g>fe<d e2f>e|d<BA>F A2d>A|1 B2A>F D2:|2 B2A>F D3||
f|a>ba<f a2a>f|a>ba<f e3f|a>ba<f a2a>b|a>fe<f d3f|
a>ba<f a2a>f|a>ba<f e3f|g>fe<d e2f>e|d<BA>F D2||

